newdle/client/src/images/logo.svg

<svg xmlns="http://www.w3.org/2000/svg" width="2312" height="809" viewBox="0 0 2312 809">
  <g fill="none" fill-rule="evenodd">
    <g transform="translate(37 36)">
      <path fill="#FFF" fill-rule="nonzero" d="M0.17,352.11 C0.07,354.74 0,357.38 0,360 C0,493.65 127.74,602 285.32,602 C442.9,602 570.63,493.65 570.63,360 C570.63,357.35 570.56,354.71 570.46,352.08 L0.17,352.11 Z"/>
      <rect width="192.25" height="78.56" x="189" y="536.32" fill="#FFF" fill-rule="nonzero" rx="27.1"/>
      <rect width="615.91" height="18.64" x="49.452" y="161.958" fill="#FFF" fill-rule="nonzero" rx="5.65" transform="rotate(-10.21 357.407 171.278)"/>
      <rect width="615.91" height="18.64" x="38.439" y="98.993" fill="#FFF" fill-rule="nonzero" rx="5.65" transform="rotate(-18.75 346.394 108.313)"/>
      <path stroke="#FFF" stroke-width="13" d="M256,359.11 C256,359.11 177,323.27 256,288.52 C335,253.77 254,203.26 256,204.35 C258,205.44 215.5,153.98 265.5,136.61"/>
      <path stroke="#FFF" stroke-width="13" d="M189,358.11 C189,358.11 110,322.27 189,287.52 C268,252.77 187,202.26 189,203.35 C191,204.44 157,173.48 207,156.11"/>
      <path stroke="#FFF" stroke-width="13" d="M129,358.11 C129,358.11 50,322.27 129,287.52 C208,252.77 127,202.26 129,203.35 C131,204.44 103.5,189 153.5,171.61"/>
    </g>
    <path fill="#FFF" fill-rule="nonzero" d="M1022.2205,354.112118 C1035.0224,362.640662 1045.15708,373.634323 1052.62486,387.093431 C1060.09263,400.55254 1063.82646,415.277383 1063.82646,431.268403 L1063.82646,551.600227 L1022.2205,551.600227 L1022.2205,431.268403 C1022.2205,424.338961 1020.88699,417.742764 1018.21993,411.479615 C1015.55287,405.216465 1011.88571,399.752949 1007.21836,395.088901 C1002.551,390.424854 997.150279,386.7603 991.016037,384.09513 C984.881794,381.42996 978.347591,380.097395 971.41323,380.097395 C964.478869,380.097395 957.87799,381.42996 951.610395,384.09513 C945.3428,386.7603 939.942081,390.424854 935.408076,395.088901 C930.87407,399.752949 927.273591,405.216465 924.606529,411.479615 C921.939467,417.742764 920.605956,424.338961 920.605956,431.268403 L920.605956,551.600227 L879,551.600227 L879,338.920725 L920.605956,338.920725 L920.605956,354.112118 C927.807023,349.314812 935.741413,345.58363 944.409364,342.91846 C953.077315,340.25329 962.078514,338.920725 971.41323,338.920725 C980.747947,338.920725 989.749145,340.25329 998.417096,342.91846 C1007.08505,345.58363 1015.01944,349.314812 1022.2205,354.112118 Z M1332.66495,459.252548 L1165.04095,459.252548 C1166.64118,466.448507 1169.37489,473.17796 1173.24212,479.44111 C1177.10936,485.704259 1181.84333,491.101148 1187.44416,495.631937 C1193.04499,500.162726 1199.31249,503.694023 1206.24685,506.225934 C1213.18121,508.757846 1220.51552,510.023783 1228.25,510.023783 C1237.58472,510.023783 1246.31921,508.158192 1254.45375,504.426954 C1262.58829,500.695716 1269.72257,495.498712 1275.85682,488.835787 L1324.26375,488.835787 C1322.66352,492.833542 1320.72992,496.631352 1318.46292,500.229332 C1316.19591,503.827311 1313.72892,507.358609 1311.06186,510.82333 C1301.46043,523.083112 1289.45883,532.877464 1275.0567,540.206682 C1260.65457,547.535899 1245.05249,551.200453 1228.25,551.200453 C1213.58116,551.200453 1199.846,548.468695 1187.0441,543.005096 C1174.2422,537.541498 1163.04071,530.012506 1153.43929,520.417894 C1143.83787,510.823282 1136.30353,499.629736 1130.83605,486.83692 C1125.36858,474.044104 1122.63488,460.318684 1122.63488,445.660249 C1122.63488,431.001814 1125.36858,417.276395 1130.83605,404.483579 C1136.30353,391.690763 1143.83787,380.497217 1153.43929,370.902605 C1163.04071,361.307993 1174.2422,353.779001 1187.0441,348.315402 C1199.846,342.851804 1213.58116,340.120045 1228.25,340.120045 C1245.05249,340.120045 1260.65457,343.784599 1275.0567,351.113817 C1289.45883,358.443034 1301.46043,368.370643 1311.06186,380.896942 C1319.86316,391.557622 1326.26401,404.083733 1330.2646,418.475651 C1332.66496,427.004195 1333.86512,436.065637 1333.86512,445.660249 C1333.86512,450.457555 1333.46507,454.988276 1332.66495,459.252548 Z M1233.25072,381.296716 C1220.18211,381.296716 1208.51389,384.694757 1198.2457,391.49094 C1187.97752,398.287123 1180.17648,407.281937 1174.84235,418.475651 L1291.65908,418.475651 C1290.32555,416.343515 1289.05871,414.211411 1287.85853,412.079275 C1286.65836,409.947139 1285.39152,407.948292 1284.05799,406.082673 C1277.92375,398.35368 1270.45609,392.290509 1261.65478,387.892978 C1252.85348,383.495448 1243.38555,381.296716 1233.25072,381.296716 Z M1598.50301,339.320498 L1643.30942,339.320498 L1572.89934,500.429219 L1550.49613,552 L1527.69287,500.429219 L1503.68943,445.660249 L1479.686,500.429219 L1457.28279,552 L1434.87958,500.429219 L1364.06944,339.320498 L1409.27592,339.320498 L1457.28279,448.858437 L1481.28623,394.089468 L1503.68943,342.518686 L1526.4927,394.089468 L1550.49613,448.858437 L1598.50301,339.320498 Z M1884.74399,445.660249 C1884.74399,460.318684 1882.01029,474.044104 1876.54281,486.83692 C1871.07534,499.629736 1863.541,510.823282 1853.93958,520.417894 C1844.33815,530.012506 1833.13666,537.541498 1820.33477,543.005096 C1807.53287,548.468695 1793.79771,551.200453 1779.12887,551.200453 C1764.46003,551.200453 1750.72486,548.468695 1737.92297,543.005096 C1725.12107,537.541498 1713.91958,530.012506 1704.31816,520.417894 C1694.71673,510.823282 1687.1824,499.629736 1681.71492,486.83692 C1676.24744,474.044104 1673.51375,460.318684 1673.51375,445.660249 C1673.51375,431.001814 1676.24744,417.276395 1681.71492,404.483579 C1687.1824,391.690763 1694.71673,380.497217 1704.31816,370.902605 C1713.91958,361.307993 1725.12107,353.779001 1737.92297,348.315402 C1750.72486,342.851804 1764.46003,340.120045 1779.12887,340.120045 C1791.39735,340.120045 1802.93222,342.052265 1813.73382,345.916761 C1824.53542,349.781258 1834.47008,355.178146 1843.53809,362.107588 L1843.53809,199 L1884.74399,199 L1884.74399,445.660249 Z M1779.12887,510.023783 C1787.93017,510.023783 1796.26461,508.358076 1804.13245,505.026614 C1812.00028,501.695151 1818.86786,497.097802 1824.7354,491.234428 C1830.60293,485.371054 1835.20354,478.508344 1838.53737,470.646093 C1841.8712,462.783841 1843.53809,454.45531 1843.53809,445.660249 L1843.53809,445.260476 C1843.53809,436.465415 1841.8712,428.203512 1838.53737,420.474519 C1835.20354,412.745526 1830.60293,405.949444 1824.7354,400.08607 C1818.86786,394.222696 1812.00028,389.625347 1804.13245,386.293884 C1796.26461,382.962422 1787.93017,381.296716 1779.12887,381.296716 C1770.32756,381.296716 1761.99312,382.962422 1754.12529,386.293884 C1746.25745,389.625347 1739.38987,394.222696 1733.52234,400.08607 C1727.6548,405.949444 1722.98751,412.812154 1719.52033,420.674405 C1716.05315,428.536657 1714.31959,436.865188 1714.31959,445.660249 C1714.31959,454.45531 1716.05315,462.783841 1719.52033,470.646093 C1722.98751,478.508344 1727.6548,485.371054 1733.52234,491.234428 C1739.38987,497.097802 1746.25745,501.695151 1754.12529,505.026614 C1761.99312,508.358076 1770.32756,510.023783 1779.12887,510.023783 Z M1954.35395,548.801812 L1954.35395,199.799547 L1995.15979,199.799547 L1995.15979,548.801812 L1954.35395,548.801812 Z M2274.79983,459.252548 L2107.17583,459.252548 C2108.77606,466.448507 2111.50976,473.17796 2115.377,479.44111 C2119.24424,485.704259 2123.97821,491.101148 2129.57904,495.631937 C2135.17987,500.162726 2141.44737,503.694023 2148.38173,506.225934 C2155.31609,508.757846 2162.6504,510.023783 2170.38488,510.023783 C2179.7196,510.023783 2188.45409,508.158192 2196.58863,504.426954 C2204.72317,500.695716 2211.85745,495.498712 2217.9917,488.835787 L2266.39863,488.835787 C2264.7984,492.833542 2262.8648,496.631352 2260.59779,500.229332 C2258.33079,503.827311 2255.8638,507.358609 2253.19674,510.82333 C2243.59531,523.083112 2231.59371,532.877464 2217.19158,540.206682 C2202.78945,547.535899 2187.18737,551.200453 2170.38488,551.200453 C2155.71604,551.200453 2141.98088,548.468695 2129.17898,543.005096 C2116.37708,537.541498 2105.17559,530.012506 2095.57417,520.417894 C2085.97275,510.823282 2078.43841,499.629736 2072.97093,486.83692 C2067.50346,474.044104 2064.76976,460.318684 2064.76976,445.660249 C2064.76976,431.001814 2067.50346,417.276395 2072.97093,404.483579 C2078.43841,391.690763 2085.97275,380.497217 2095.57417,370.902605 C2105.17559,361.307993 2116.37708,353.779001 2129.17898,348.315402 C2141.98088,342.851804 2155.71604,340.120045 2170.38488,340.120045 C2187.18737,340.120045 2202.78945,343.784599 2217.19158,351.113817 C2231.59371,358.443034 2243.59531,368.370643 2253.19674,380.896942 C2261.99804,391.557622 2268.39889,404.083733 2272.39948,418.475651 C2274.79984,427.004195 2276,436.065637 2276,445.660249 C2276,450.457555 2275.59995,454.988276 2274.79983,459.252548 Z M2170.38488,381.296716 C2157.31628,381.296716 2145.64806,384.694757 2135.37987,391.49094 C2125.11168,398.287123 2117.31064,407.281937 2111.97652,418.475651 L2228.79324,418.475651 C2227.45971,416.343515 2226.19288,414.211411 2224.9927,412.079275 C2223.79252,409.947139 2222.52568,407.948292 2221.19215,406.082673 C2215.05791,398.35368 2207.59025,392.290509 2198.78895,387.892978 C2189.98764,383.495448 2180.51971,381.296716 2170.38488,381.296716 Z"/>
  </g>
</svg>

<svg xmlns="http://www.w3.org/2000/svg" width="2312" height="809"><g fill="none" fill-rule="evenodd"><g transform="translate(37 36)"><path fill="#FFF" fill-rule="nonzero" d="M.17 352.11C.07 354.74 0 357.38 0 360c0 133.65 127.74 242 285.32 242 157.58 0 285.31-108.35 285.31-242 0-2.65-.07-5.29-.17-7.92l-570.29.03z"/><rect width="192.25" height="78.56" x="189" y="536.32" fill="#FFF" fill-rule="nonzero" rx="27.1"/><rect width="615.91" height="18.64" x="49.452" y="161.958" fill="#FFF" fill-rule="nonzero" rx="5.65" transform="rotate(-10.21 357.407 171.278)"/><rect width="615.91" height="18.64" x="38.439" y="98.993" fill="#FFF" fill-rule="nonzero" rx="5.65" transform="rotate(-18.75 346.394 108.313)"/><path stroke="#FFF" stroke-width="13" d="M256 359.11s-79-35.84 0-70.59-2-85.26 0-84.17c2 1.09-40.5-50.37 9.5-67.74"/><path stroke="#FFF" stroke-width="13" d="M189 358.11s-79-35.84 0-70.59-2-85.26 0-84.17c2 1.09-32-29.87 18-47.24"/><path stroke="#FFF" stroke-width="13" d="M129 358.11s-79-35.84 0-70.59-2-85.26 0-84.17c2 1.09-25.5-14.35 24.5-31.74"/></g><path fill="#FFF" fill-rule="nonzero" d="M1022.22 354.112c12.802 8.529 22.937 19.522 30.405 32.981 7.468 13.46 11.201 28.184 11.201 44.175V551.6h-41.606V431.268c0-6.929-1.333-13.525-4-19.788-2.667-6.264-6.334-11.727-11.002-16.391-4.667-4.664-10.068-8.329-16.202-10.994-6.134-2.665-12.668-3.998-19.603-3.998-6.934 0-13.535 1.333-19.803 3.998-6.267 2.665-11.668 6.33-16.202 10.994-4.534 4.664-8.134 10.127-10.801 16.39-2.668 6.264-4.001 12.86-4.001 19.79V551.6H879V338.92h41.606v15.192c7.201-4.797 15.135-8.528 23.803-11.194 8.668-2.665 17.67-3.997 27.004-3.997 9.335 0 18.336 1.332 27.004 3.997 8.668 2.666 16.602 6.397 23.803 11.194zm310.445 105.14h-167.624a65.027 65.027 0 008.201 20.19c3.867 6.262 8.601 11.66 14.202 16.19 5.601 4.53 11.868 8.062 18.803 10.594 6.934 2.532 14.269 3.798 22.003 3.798 9.335 0 18.07-1.866 26.204-5.597 8.134-3.731 15.269-8.928 21.403-15.591h48.407a70.4 70.4 0 01-5.801 11.393 137.775 137.775 0 01-7.401 10.594c-9.602 12.26-21.603 22.054-36.005 29.384-14.402 7.329-30.005 10.993-46.807 10.993-14.669 0-28.404-2.731-41.206-8.195-12.802-5.464-24.003-12.992-33.605-22.587-9.601-9.595-17.135-20.788-22.603-33.581-5.467-12.793-8.201-26.518-8.201-41.177 0-14.658 2.734-28.384 8.201-41.176 5.468-12.793 13.002-23.987 22.603-33.581 9.602-9.595 20.803-17.124 33.605-22.588 12.802-5.463 26.537-8.195 41.206-8.195 16.802 0 32.405 3.665 46.807 10.994 14.402 7.329 26.403 17.257 36.005 29.783 8.801 10.66 15.202 23.187 19.203 37.579 2.4 8.528 3.6 17.59 3.6 27.184 0 4.798-.4 9.328-1.2 13.593zm-99.414-77.955c-13.069 0-24.737 3.398-35.005 10.194-10.268 6.796-18.07 15.79-23.404 26.985h116.817a160.975 160.975 0 01-3.8-6.397 65.836 65.836 0 00-3.801-5.996c-6.134-7.73-13.602-13.792-22.403-18.19-8.802-4.398-18.27-6.596-28.404-6.596zm365.252-41.977h44.806l-70.41 161.11-22.403 51.57-22.803-51.57-24.004-54.77-24.003 54.77-22.403 51.57-22.403-51.57-70.81-161.11h45.206l48.007 109.538 24.003-54.769 22.403-51.57 22.804 51.57 24.003 54.77 48.007-109.539zm286.241 106.34c0 14.659-2.734 28.384-8.201 41.177-5.468 12.793-13.002 23.986-22.603 33.58-9.602 9.596-20.803 17.124-33.605 22.588-12.802 5.464-26.537 8.195-41.206 8.195-14.669 0-28.404-2.731-41.206-8.195-12.802-5.464-24.003-12.992-33.605-22.587-9.601-9.595-17.136-20.788-22.603-33.581-5.468-12.793-8.201-26.518-8.201-41.177 0-14.658 2.733-28.384 8.2-41.176 5.468-12.793 13.003-23.987 22.604-33.581 9.602-9.595 20.803-17.124 33.605-22.588 12.802-5.463 26.537-8.195 41.206-8.195 12.268 0 23.803 1.932 34.605 5.797 10.801 3.864 20.736 9.261 29.804 16.19V199h41.206v246.66zm-105.615 64.364c8.801 0 17.136-1.666 25.003-4.997 7.868-3.332 14.736-7.93 20.603-13.793 5.868-5.863 10.469-12.726 13.802-20.588 3.334-7.862 5.001-16.19 5.001-24.986v-.4c0-8.795-1.667-17.056-5-24.785-3.334-7.73-7.935-14.526-13.803-20.389-5.867-5.863-12.735-10.46-20.603-13.792-7.867-3.332-16.202-4.997-25.003-4.997-8.801 0-17.136 1.665-25.004 4.997-7.868 3.331-14.735 7.929-20.603 13.792-5.867 5.863-10.534 12.726-14.002 20.588-3.467 7.863-5.2 16.191-5.2 24.986 0 8.795 1.733 17.124 5.2 24.986 3.468 7.862 8.135 14.725 14.002 20.588 5.868 5.864 12.735 10.461 20.603 13.793 7.868 3.331 16.203 4.997 25.004 4.997zm175.225 38.778V199.8h40.806v349.002h-40.806zm320.446-89.55h-167.624a65.027 65.027 0 008.201 20.19c3.867 6.262 8.601 11.66 14.202 16.19 5.6 4.53 11.868 8.062 18.803 10.594 6.934 2.532 14.268 3.798 22.003 3.798 9.335 0 18.07-1.866 26.204-5.597 8.134-3.731 15.268-8.928 21.403-15.591h48.407a70.398 70.398 0 01-5.801 11.393 137.772 137.772 0 01-7.401 10.594c-9.602 12.26-21.603 22.054-36.005 29.384-14.403 7.329-30.005 10.993-46.807 10.993-14.669 0-28.404-2.731-41.206-8.195-12.802-5.464-24.003-12.992-33.605-22.587-9.601-9.595-17.136-20.788-22.603-33.581-5.468-12.793-8.201-26.518-8.201-41.177 0-14.658 2.733-28.384 8.2-41.176 5.468-12.793 13.003-23.987 22.604-33.581 9.602-9.595 20.803-17.124 33.605-22.588 12.802-5.463 26.537-8.195 41.206-8.195 16.802 0 32.404 3.665 46.807 10.994 14.402 7.329 26.403 17.257 36.005 29.783 8.801 10.66 15.202 23.187 19.202 37.579 2.4 8.528 3.601 17.59 3.601 27.184 0 4.798-.4 9.328-1.2 13.593zm-104.415-77.955c-13.069 0-24.737 3.398-35.005 10.194-10.268 6.796-18.07 15.79-23.403 26.985h116.816a160.974 160.974 0 01-3.8-6.397 65.838 65.838 0 00-3.8-5.996c-6.135-7.73-13.603-13.792-22.404-18.19-8.801-4.398-18.27-6.596-28.404-6.596z"/></g></svg>
